X: 221
T: No_77_Lizard_Dance_Song_(b).krn
N: Derived from No_77_Lizard_Dance_Song_(b).krn
%%abc-version 2.0
%%abcx-abcm2ps-target-version 5.9.1 (29 Sep 2008)
%%abc-creator hum2abc beta
%%abcx-conversion-date 2019/03/15 08:38:45
%%humdrum-veritas 1390542819
%%humdrum-veritas-data 348804646
%%linebreak <none>
%%barnumbers 0
L: 1/8
M: 2/4
K: F clef=bass
[K:clef=bass][M:2/4]C3/C/ A,3/C/ ||  
[M:3/8](3A,G,A, F,/ z/ ||  
[M:2/4]D,2D,3/C,/ ||  
[M:3/8]F,2F, ]|:  
[M:2/4]F,3/F,/ A,3/C/ ||  
[M:3/8](3A,G,A, F,/ z/ ||  
[M:2/4]D,2D,3/C,/ ||  
[M:3/8]F,2F, ||  
[M:2/4]C3/C/ A,3/C/ ||  
[M:3/8](3A,G,A, F,/ z/ ||  
[M:2/4]D,2D,3/C,/ ||  
[M:3/8]F,2F, :|]  
[M:2/4]F,3/F,/ A,3/A,/ ||  
[M:3/8](3A,G,A, F, ||  
[M:3/4]D,2D,3/C,/F,2 | 
C3A,/A,/ A,G, ||  
[M:5/8]F,/F,/F,-F, z D, ||  
[M:3/8]F,/F,/F,G, | 
F,/F,/F,G, | 
A,/A,/A,G, | 
F,/F,/F, z | 
z2D, | 
F,/F,/F,G, | 
F,/F,/F,C | 
A,/A,/A,G, | 
F,/F,/F, z | 
z2D, | 
F,/F,/F,G, | 
F,/F,/F,G, | 
A,/A,/A,G, | 
F,/F,/F, z | 
z2D, | 
F,/F,/F,G, | 
F,/F,/F, z



% FRACTION = 0.499634BUT SHOULD BE 0
